**kern
*staff1
!!pagebreak:original
*I"P1
=1-
*clefG2
*k[f#]
*M3/8
4dd\
8cc\
=2
4b\
8cc\
=3
4a/
8b\
=4
16bQ/
8a/L
16g/L
16f#/J
8g/J
=5
8d/L
8b/
8a/J
=6
8d/L
8cc/
8b/J
=7
8e\L
16ff#\L
16ee\
16dd\
16cc\JJ
=8
4b\
8a/
*-
